symbols/web/download/materialsymbolsoutlined/download_wght600gradN25_40px.svg

<svg xmlns="http://www.w3.org/2000/svg" height="40" width="40"><path d="M9.167 34.208q-1.459 0-2.5-1.041-1.042-1.042-1.042-2.5v-6.792h3.542v6.792h21.625v-6.792h3.541v6.792q0 1.458-1.041 2.5-1.042 1.041-2.5 1.041ZM20 26.25l-8.833-8.833 2.5-2.459 4.583 4.584V5.083h3.542v14.459l4.541-4.584 2.5 2.459Z"/></svg>

<svg xmlns="http://www.w3.org/2000/svg" height="40" width="40"><path d="M20 26.25 11.167 17.417 13.667 14.958 18.25 19.542V5.083H21.792V19.542L26.333 14.958L28.833 17.417ZM9.167 34.208Q7.708 34.208 6.667 33.167Q5.625 32.125 5.625 30.667V23.875H9.167V30.667Q9.167 30.667 9.167 30.667Q9.167 30.667 9.167 30.667H30.792Q30.792 30.667 30.792 30.667Q30.792 30.667 30.792 30.667V23.875H34.333V30.667Q34.333 32.125 33.292 33.167Q32.25 34.208 30.792 34.208Z"/></svg>
